Newaita/actions/32/gnumeric-formulaguru.svg

<svg height="32" viewBox="0 0 32 32" width="32" xmlns="http://www.w3.org/2000/svg"><g fill="#424242"><path d="m5.292969 12.820312c0 .363282.292969.660157.660156.660157h1.324219c.367187 0 .660156-.296875.660156-.660157v-1.984374c0-2.933594 2.359375-5.292969 5.292969-5.292969 2.933593 0 5.292969 2.359375 5.292969 5.292969v1.984374c0 .363282.292968.660157.660156.660157h1.324218c.367188 0 .660157-.296875.660157-.660157v-1.984374c0-4.398438-3.539063-7.941407-7.9375-7.941407-4.398438 0-7.9375 3.542969-7.9375 7.941407zm0 0"/><path d="m7.277344 16.125h6.613281c.367187 0 .664063.296875.664063.664062v1.320313c0 .367187-.296876.664063-.664063.664063h-6.613281c-.367188 0-.664063-.296876-.664063-.664063v-1.320313c0-.367187.296875-.664062.664063-.664062zm0 0"/><path d="m5.953125 12.15625h1.324219c.363281 0 .660156.261719.660156.582031v16.039063c0 .320312-.296875.578125-.660156.578125h-1.324219c-.363281 0-.660156-.257813-.660156-.578125v-16.039063c0-.320312.296875-.582031.660156-.582031zm0 0"/><path d="m20.484375 17.480469 5.953125 10.3125c.183594.316406.074219.71875-.242188.902343l-1.144531.660157c-.316406.183593-.722656.074219-.90625-.242188l-5.953125-10.308593c-.183594-.316407-.074218-.722657.242188-.90625l1.144531-.660157c.316406-.183593.722656-.074219.90625.242188zm0 0"/><path d="m26.4375 18.804688-5.953125 10.308593c-.183594.316407-.589844.425781-.90625.242188l-1.144531-.660157c-.316406-.183593-.425782-.585937-.242188-.902343l5.953125-10.3125c.183594-.316407.589844-.425781.90625-.242188l1.144531.660157c.316407.183593.425782.589843.242188.90625zm0 0"/></g></svg>

<svg xmlns="http://www.w3.org/2000/svg" xmlns:xlink="http://www.w3.org/1999/xlink" width="32px" height="32px" viewBox="0 0 32 32" version="1.1">
<g id="surface1">
     <defs>
  <style id="current-color-scheme" type="text/css">
   .ColorScheme-Text { color:#424242; } .ColorScheme-Highlight { color:#eeeeee; }
  </style>
 </defs>
<path style="fill:currentColor" class="ColorScheme-Text" d="M 5.292969 12.820312 C 5.292969 13.183594 5.585938 13.480469 5.953125 13.480469 L 7.277344 13.480469 C 7.644531 13.480469 7.9375 13.183594 7.9375 12.820312 L 7.9375 10.835938 C 7.9375 7.902344 10.296875 5.542969 13.230469 5.542969 C 16.164062 5.542969 18.523438 7.902344 18.523438 10.835938 L 18.523438 12.820312 C 18.523438 13.183594 18.816406 13.480469 19.183594 13.480469 L 20.507812 13.480469 C 20.875 13.480469 21.167969 13.183594 21.167969 12.820312 L 21.167969 10.835938 C 21.167969 6.4375 17.628906 2.894531 13.230469 2.894531 C 8.832031 2.894531 5.292969 6.4375 5.292969 10.835938 Z M 5.292969 12.820312 "/>
     <defs>
  <style id="current-color-scheme" type="text/css">
   .ColorScheme-Text { color:#424242; } .ColorScheme-Highlight { color:#eeeeee; }
  </style>
 </defs>
<path style="fill:currentColor" class="ColorScheme-Text" d="M 7.277344 16.125 L 13.890625 16.125 C 14.257812 16.125 14.554688 16.421875 14.554688 16.789062 L 14.554688 18.109375 C 14.554688 18.476562 14.257812 18.773438 13.890625 18.773438 L 7.277344 18.773438 C 6.910156 18.773438 6.613281 18.476562 6.613281 18.109375 L 6.613281 16.789062 C 6.613281 16.421875 6.910156 16.125 7.277344 16.125 Z M 7.277344 16.125 "/>
     <defs>
  <style id="current-color-scheme" type="text/css">
   .ColorScheme-Text { color:#424242; } .ColorScheme-Highlight { color:#eeeeee; }
  </style>
 </defs>
<path style="fill:currentColor" class="ColorScheme-Text" d="M 5.953125 12.15625 L 7.277344 12.15625 C 7.640625 12.15625 7.9375 12.417969 7.9375 12.738281 L 7.9375 28.777344 C 7.9375 29.097656 7.640625 29.355469 7.277344 29.355469 L 5.953125 29.355469 C 5.589844 29.355469 5.292969 29.097656 5.292969 28.777344 L 5.292969 12.738281 C 5.292969 12.417969 5.589844 12.15625 5.953125 12.15625 Z M 5.953125 12.15625 "/>
     <defs>
  <style id="current-color-scheme" type="text/css">
   .ColorScheme-Text { color:#424242; } .ColorScheme-Highlight { color:#eeeeee; }
  </style>
 </defs>
<path style="fill:currentColor" class="ColorScheme-Text" d="M 20.484375 17.480469 L 26.4375 27.792969 C 26.621094 28.109375 26.511719 28.511719 26.195312 28.695312 L 25.050781 29.355469 C 24.734375 29.539062 24.328125 29.429688 24.144531 29.113281 L 18.191406 18.804688 C 18.007812 18.488281 18.117188 18.082031 18.433594 17.898438 L 19.578125 17.238281 C 19.894531 17.054688 20.300781 17.164062 20.484375 17.480469 Z M 20.484375 17.480469 "/>
     <defs>
  <style id="current-color-scheme" type="text/css">
   .ColorScheme-Text { color:#424242; } .ColorScheme-Highlight { color:#eeeeee; }
  </style>
 </defs>
<path style="fill:currentColor" class="ColorScheme-Text" d="M 26.4375 18.804688 L 20.484375 29.113281 C 20.300781 29.429688 19.894531 29.539062 19.578125 29.355469 L 18.433594 28.695312 C 18.117188 28.511719 18.007812 28.109375 18.191406 27.792969 L 24.144531 17.480469 C 24.328125 17.164062 24.734375 17.054688 25.050781 17.238281 L 26.195312 17.898438 C 26.511719 18.082031 26.621094 18.488281 26.4375 18.804688 Z M 26.4375 18.804688 "/>
</g>
</svg>
